fs/glasses_off_48_regular.svg

<svg viewBox="0 0 48 48" fill="none" xmlns="http://www.w3.org/2000/svg" height="1em" width="1em">
  <path d="M41.8661 43.6339L34.2244 35.9922H32.5C28.9101 35.9922 26 33.082 26 29.4922L25.9992 27.767L23.2402 25.008H21.996L21.9977 29.4922C21.9977 33.082 19.0875 35.9922 15.4977 35.9922H10.5C6.91015 35.9922 4 33.082 4 29.4922V22.4991C4 21.3759 4.41153 20.3488 5.09203 19.5603L5.16765 19.45L5.25541 19.3452L11.1555 12.9232L4.36612 6.13388C3.87796 5.64573 3.87796 4.85427 4.36612 4.36612C4.85427 3.87796 5.64573 3.87796 6.13388 4.36612L43.6339 41.8661C44.122 42.3543 44.122 43.1457 43.6339 43.6339C43.1457 44.122 42.3543 44.122 41.8661 43.6339ZM13.2785 15.0463L10.566 17.998L16.2311 17.9989L13.2785 15.0463ZM8.5 20.9991C7.67157 20.9991 7 21.6707 7 22.4991V29.4922C7 31.4252 8.567 32.9922 10.5 32.9922H15.4977C17.4307 32.9922 18.9977 31.4252 18.9977 29.4922V22.4991C18.9977 21.6707 18.3261 20.9991 17.4977 20.9991H8.5ZM26.2683 20.965L29 23.6967V22.4991C29 21.6707 29.6716 20.9991 30.5 20.9991H39.4977C40.3261 20.9991 40.9977 21.6707 40.9977 22.4991V29.4922C40.9977 31.1773 39.8068 32.5843 38.2207 32.9174L40.5407 35.2374C42.5971 34.1459 43.9977 31.9826 43.9977 29.4922V22.4991C43.9977 21.4403 43.632 20.4668 43.0203 19.6981C42.958 19.5716 42.8767 19.4518 42.7762 19.3428L35.4924 11.4485L35.2267 11.1835C34.4001 10.4254 33.3157 9.99999 32.1851 9.99999H29.4935L29.2899 10.0137C28.5578 10.113 27.9935 10.7406 27.9935 11.5C27.9935 12.3284 28.6651 13 29.4935 13H32.1851L32.3924 13.0144C32.7339 13.062 33.0509 13.2263 33.2875 13.4828L37.454 17.998L30.5 17.9991C28.5534 17.9991 26.8956 19.235 26.2683 20.965ZM18.3033 13L15.3298 10.0265C15.3671 10.0224 15.4044 10.0188 15.4418 10.0157L15.8177 9.99999H18.4989C19.3273 9.99999 19.9989 10.6716 19.9989 11.5C19.9989 12.2594 19.4346 12.887 18.7024 12.9863L18.4989 13H18.3033Z" fill="#212121"/>
</svg>

<svg viewBox="0 0 48 48" fill="none" xmlns="http://www.w3.org/2000/svg" height="1em" width="1em">
  <path d="m41.866 43.634-7.642-7.642H32.5a6.5 6.5 0 0 1-6.5-6.5v-1.725l-2.76-2.759h-1.244l.002 4.484a6.5 6.5 0 0 1-6.5 6.5H10.5a6.5 6.5 0 0 1-6.5-6.5V22.5c0-1.123.412-2.15 1.092-2.939l.076-.11.087-.105 5.9-6.422-6.789-6.79a1.25 1.25 0 1 1 1.768-1.767l37.5 37.5a1.25 1.25 0 0 1-1.768 1.768ZM13.28 15.046l-2.713 2.952h5.665l-2.953-2.952ZM8.5 21A1.5 1.5 0 0 0 7 22.5v6.993a3.5 3.5 0 0 0 3.5 3.5h4.998a3.5 3.5 0 0 0 3.5-3.5V22.5a1.5 1.5 0 0 0-1.5-1.5H8.5Zm17.768-.034L29 23.697v-1.198a1.5 1.5 0 0 1 1.5-1.5h8.998a1.5 1.5 0 0 1 1.5 1.5v6.993a3.501 3.501 0 0 1-2.777 3.425l2.32 2.32a6.5 6.5 0 0 0 3.457-5.745V22.5a4.483 4.483 0 0 0-.978-2.8 1.504 1.504 0 0 0-.244-.356l-7.284-7.895-.265-.264A4.5 4.5 0 0 0 32.185 10h-2.692l-.203.014A1.5 1.5 0 0 0 29.494 13h2.691l.207.014a1.5 1.5 0 0 1 .895.469l4.167 4.515-6.954.001a4.502 4.502 0 0 0-4.232 2.966ZM18.303 13l-2.973-2.973a4.2 4.2 0 0 1 .112-.011l.376-.016h2.68a1.5 1.5 0 0 1 .204 2.986L18.5 13h-.196Z" fill="#212121"/>
</svg>
